!! 00000] TT[WS
!!!OTL: Kumingui quan buhe ren yiyang
!!!ARE: Asia, China,ÿShanxi Hequ
!! Ethnic Group: Han
!! WI, 38 (2)
!!!SCT: J0041
!!!YEM: Copyright 1995, estate of Helmut Schaffrath.
**kern
*ICvox
*Ivox
*M2/4
*k[b-e-]
*B-:
{16fff
16fff
8ddd
8ff
16gg
16bb-
=1
16ff
16gg
16ff
16dd
4cc
=2
8fff
16ddd
16bb-
16ff
16gg
16fff
16ddd
=3
2ccc}
=4
{8fff
8ddd
8ff
16gg
16bb-
=5
16ff
16gg
16ff
16dd
8.cc
16cc
=6
8fff
16ddd
16bb-
16ff
16gg
16fff
16ddd
=7
2ff}
==
!!!AGN: Shange, Shanqu. Aisu
!!!ONB: ESAC (Essen Associative Code) Database: CHINA
!!!AMT: simple duple
!!!AIN: vox
!!!EED: Helmut Schaffrath
!!!EEV: 1.0
*-
